X: 7458
T: Clumsy Lover, The
R: jig
M: 6/8
K: Amixolydian
|:cee eAe|dfd =gfe|cee eAe|dBB B2d|
cee eAe|dfd =gfe|cec dB=G|BAA A2B:|
|:cee aec|dee aed|cee aec|dBB B2d|
cee aec|dee aed|cec dB=G|BAA A2B:|
|:cee eAe|d2f =gfe|cee eAe|dBB B2d|
cee eAe|d2f =gfe|cec dB=G|BAA A2B:|
caa cac|da da da|ca ca ca|Bac daB|
ca ca ca|da da da|cec dB=G|BAA A2B:|
|:cee eAe|dfA =gfe|cee eAe|dBB B2d|
cee eAe|dfA =gfe|cec dB=G|BAA A2B:|
cee aec|dff afd|cee aec|dBB B2 d|
cee aec|dff afd|cec dB=G|BAA A2B:|

